X:1
T: Doonies Yawns
C:C Sherrit
R:Reel
Q: 232
K:A
M:4/4
L:1/8
e|:a2 ga fg af|ec Bc AG FE|A2 ce af eA|c2 B2 B2 e2|
a2 ga fg af|ec Bc AG FE|A2 ce dB ed|1c2 A2 A2 e2:|2c2 A2 A2 c2|
|:Bc dB GE GB|AB cd e2 ag|f2 af ec BA|G2 B2 B2 c2|
Bc dB GE GB|AB cd e2 ag|f2 ad ec dB|1c2 A2 A2 c2:|2c2 A2 A3||
